X: 29468
T: Night Walk
R: jig
M: 6/8
K: Aminor
"Am"E3/2A,/C E2 E|"Dm"FAF "Am"E2 C|"Dm"D2 E FDC|"E"B,3/2_B,/=B, E3|
"Am"E3/2A,/C E2 E|"Dm"FAF "Am"E2 C|"Dm"D2 E FDC|"E"B,2 C "Am"A,3:|
"Am^"A2 B c2 ^G|"Am"A3 A2 E|"Am"A2 B c2 ^G|"Am"A3 A2 D|
"G"G2 A B2 G|"G"D2 G FED|"F"F3 F3/2E/_E|"E"E3 E3|
"Am"E3/2A,/C E2 E|"Dm"FAF "Am"E2 C|"Dm"D2 E FDC|"E"B,3/2_B,/=B, E3|
"Am"E3/2A,/C E2 E|"Dm"FAF "Am"E2 C|"Dm"D2 E FDC|"E"B,2 C "Am"A,3||

